X: 10
T:Trip to Athlone, The
T:Gearrchaile Bhaile U bhFiachin
T:Newport Lass, The
M:6/8
L:1/8
R:Double Jig
K:D
B[|:ABA DED|d=cA AGE|ABA ABc|dAB cde|!
ABA DED|d=cA AGE|GFG Ade|1fdc d2B:|2fdc d2e|!
|:f2d edc|AdB cde|fed edc|ABc def|!
gfg age|d=cA AGE|GFG Ade|1fdc d2e:|2fdc d2B|]!
